src/icons/svg/google.svg

<svg xmlns="http://www.w3.org/2000/svg" width="24" height="24" fill="none"><path fill="#373B4D" fill-rule="evenodd" d="M11.3 3.08c-2.783.216-5.63 1.994-7.037 4.395-.528.901-.986 2.212-1.168 3.345-.096.598-.096 1.751 0 2.379.458 2.995 2.268 5.476 4.965 6.804 1.537.757 2.987 1.05 4.731.956 2.261-.122 4.245-.942 5.669-2.345.662-.652 1.119-1.294 1.562-2.194.58-1.178.886-2.4.958-3.82.031-.596-.033-1.711-.111-1.95-.048-.146-.055-.151-.289-.176-.132-.014-2.08-.039-4.33-.055l-4.09-.03v3.451l1.19.005c.655.003 1.766.017 2.47.03l1.28.025-.01.092c-.018.168-.273.794-.45 1.103-.622 1.087-1.605 1.813-2.9 2.141-.789.199-2.138.214-2.8.031-1.101-.306-1.896-.774-2.647-1.56-.741-.775-1.247-1.728-1.417-2.667-.07-.384-.068-1.673.002-2.08.071-.412.248-.9.509-1.404a5.65 5.65 0 0 1 2.482-2.432c.719-.358 1.351-.489 2.371-.489 1.205 0 1.969.242 3.049.967l.406.273.143-.116a58 58 0 0 0 1.32-1.269l1.178-1.153-.338-.264c-1.291-1.005-2.729-1.653-4.238-1.91-.576-.098-1.752-.138-2.46-.083"/></svg>

<svg width="24" height="24" fill="none" xmlns="http://www.w3.org/2000/svg"><path d="M11.300 3.080 C 8.517 3.296,5.670 5.074,4.263 7.475 C 3.735 8.376,3.277 9.687,3.095 10.820 C 2.999 11.418,2.999 12.571,3.095 13.199 C 3.553 16.194,5.363 18.675,8.060 20.003 C 9.597 20.760,11.047 21.053,12.791 20.959 C 15.052 20.837,17.036 20.017,18.460 18.614 C 19.122 17.962,19.579 17.320,20.022 16.420 C 20.602 15.242,20.908 14.020,20.980 12.600 C 21.011 12.004,20.947 10.889,20.869 10.650 C 20.821 10.504,20.814 10.499,20.580 10.474 C 20.448 10.460,18.500 10.435,16.250 10.419 L 12.160 10.389 12.160 12.114 L 12.160 13.840 13.350 13.845 C 14.005 13.848,15.116 13.862,15.820 13.875 L 17.100 13.900 17.090 13.992 C 17.072 14.160,16.817 14.786,16.640 15.095 C 16.018 16.182,15.035 16.908,13.740 17.236 C 12.951 17.435,11.602 17.450,10.940 17.267 C 9.839 16.961,9.044 16.493,8.293 15.707 C 7.552 14.932,7.046 13.979,6.876 13.040 C 6.806 12.656,6.808 11.367,6.878 10.960 C 6.949 10.548,7.126 10.060,7.387 9.556 C 7.922 8.521,8.806 7.655,9.869 7.124 C 10.588 6.766,11.220 6.635,12.240 6.635 C 13.445 6.635,14.209 6.877,15.289 7.602 L 15.695 7.875 15.838 7.759 C 15.916 7.696,16.510 7.125,17.158 6.490 L 18.336 5.337 17.998 5.073 C 16.707 4.068,15.269 3.420,13.760 3.163 C 13.184 3.065,12.008 3.025,11.300 3.080 " fill="#373B4D" stroke="none" fill-rule="evenodd"></path></svg>
